X:1
T:I’ll Be There
T:I’ll Be There
T:William Washington Slater
T:Vallie Ward, 1914
T:Public Domain Courtesy of the Cyber Hymnal™
T:Public Domain Courtesy of the Cyber Hymnal™
C:William Washington Slater
Z:Public Domain
Z:Courtesy of the Cyber Hymnal™
%%score ( 1 2 ) ( 3 4 )
L:1/8
Q:1/4=87
M:4/4
K:Ab
V:1 treble 
V:2 treble 
V:3 bass 
V:4 bass 
V:1
 [Ec]>[DB] | [CA]<[CA] [EA]>[EA] [DF]<[CE] [CE]>[DF] | [EA]<[EA] [EA]>[EB] [Ec]2 [Ae]>[Ae] | %3
w: 1.~I have|start- ed on my jour- ney To that|bet- ter land a- bove, Hal- le-|
w: 2.~If I|trust my pre- cious Sav- ior And His|bless- èd word o- bey, Hal- le-|
w: 3.~Then when|this short life is o- ver And my|work on earth is done, Hal- le-|
w: 4.~Come and|go with me, dear bro- ther, To that|bless- èd home a- bove, Hal- le-|
 [Af]<[Ae] [Ec]>[=EB] [FA]<[FA] [AB]>[Ac] | [GB]6 [Ae]>[Ae] | %5
w: lu- jah! in that morn- ing I’ll be|there; I am|
w: lu- jah! in that morn- ing I’ll be|there; He has|
w: lu- jah! in that morn- ing I’ll be|there; I will|
w: lu- jah! in that morn- ing I’ll be|there; There we’ll|
 [Ed]<[Ec] [CA]>[Ec] [DB]<[CA] [CE]>[DF] | [EA]>[EA] [EA]>[EB] [Ec]2 [Ae]>[Ae] | %7
w: walk- ing with my Sav- ior, Sing- ing|of His won- drous love, Hal- le-|
w: prom- ised to be with me And to|lead me all the way, Hal- le-|
w: en- ter life e- ter- nal There to|wear a shin- ing crown, Hal- le-|
w: meet our bless- èd Sav- ior And all|those we used to know, Hal- le-|
 [Af]<[Ae] A>[AB] [Ac]<[Ac] [Ac]>[GB] | A6 ||"^Refrain" c>d | (z2 [Ae])[Ac] [Ac]>[GB] x2 | %11
w: lu- jah! in the morn- ing I’ll be|there.|||
w: lu- jah! in that morn- ing I’ll be|there.|I’ll be|* there, yes, I’ll|
w: lu- jah! in that morn- ing I’ll be|there.|||
w: lu- jah! in that morn- ing I’ll be|there.|||
 z3/2 E2 [EA]>[EB] x3 | [Ac]<[Ac] [Gd]>[Ac] B<B [A=d]>[Ad] | [Ge]6 [Ae]>[Ae] | %14
w: |||
w: * be there,|* When that morn- ing breaks e- ter-|nal, bright and|
w: |||
w: |||
 [Ed]<[Ec] [CA]>[Ec] [DB]<[CA] [CE]>[DF] | [EA]>[EA] [EA]>[EB] [Ec]2 [Ae]>[Ae] | %16
w: ||
w: fair; Come and go with me to glo-|ry Where we’ll rest for- ev- er-|
w: ||
w: ||
 [Af]<[Ae] A>[AB] [Ac]<[Ac] [Ac]>[GB] | A6 |] %18
w: ||
w: more, Hal- le- lu- jah! in that morn-|ing|
w: ||
w: ||
V:2
 x2 | x8 | x8 | x8 | x8 | x8 | x8 | x2 A3/2 x9/2 | A6 || x2 | e4- A3/2 A/ x2 | A6 E<FF/ | %12
 x4 B<B x2 | x8 | x8 | x8 | x2 A3/2 x9/2 | A6 |] %18
V:3
 [A,,A,]>[A,,A,] | [A,,A,]<[A,,A,] [A,,C]>[A,,C] [A,,A,]<[A,,A,] [A,,A,]<[A,,A,] | %2
w: ||
 [A,,C]<[A,,C] [C,A,]>[E,G,] A,2 [A,C]>[A,C] | [A,D]<[A,C] A,>[G,B,] [F,C]<[F,C] [B,,=D]>[B,,D] | %4
w: * * * * I’ll * *|* * be * * * * *|
 [E,E]6 [A,C]>[A,C] | A,<A, [A,,A,]>[A,,A,] [A,,G,]<[A,,A,] [A,,A,]>[A,,A,] | %6
w: |there, be * * * * * *|
 [A,,C]>[A,,C] [C,A,]>[E,G,] A,2 [A,C]>[A,C] | [A,C]<[A,C] [C,E]>[D,F] [E,E]<[E,E] [E,D]>[E,D] | %8
w: * * * * o- * *||
 [A,,C]6 || z2 | z2 [A,C]>[A,C] [A,C][A,E] [E,E]>[E,D] | %11
w: ||ver there, * * * *|
 [A,,C]>[A,,C] [D,D]>[D,D] [A,,C]2 [A,C]>[A,D] x/ | %12
w: |
 [A,E]<[A,E] [B,E]>[A,E] [G,E]<[G,E] [F,B,]>[=F,B,] | [E,B,]6 [A,C]>[A,C] | %14
w: ||
 A,<A, [A,,A,]>[A,,A,] [A,,G,]<[A,,A,] [A,,A,]>[A,,A,] | %15
w: |
 [A,,C]>[A,,C] [C,A,]>[E,G,] A,2 [A,C]>[A,C] | [A,C]<[A,C] [C,E]>[D,F] [E,E]<[E,E] [E,D]>[E,D] | %17
w: ||
 [A,,C]6 |] %18
w: |
V:4
 x2 | x8 | x4 A,2 x2 | x2 A,3/2 x9/2 | x8 | A,<A, x6 | x4 A,2 x2 | x8 | x6 || x2 | x8 | x17/2 | %12
 x8 | x8 | A,<A, x6 | x4 A,2 x2 | x8 | x6 |] %18

